16x16/apps/opera-developer.svg

<svg xmlns="http://www.w3.org/2000/svg" width="16" height="16" x="0" y="0" version="1.1">
 <path style="fill:#a3a3a3" d="m 7.9618902,0.26676829 c -4.418278,0 -7.58079264,3.35306351 -7.58079264,7.77134151 0,4.4182782 3.23873424,7.4664632 7.65701224,7.4664632 1.5906555,0 3.0347732,0.03119 4.2804762,-0.769182 C 14.533005,13.31261 16,10.827622 16,8 16,5.5406285 14.890227,3.3404583 13.14414,1.8729479 11.75337,0.70406572 9.9207967,0.26676829 7.9618902,0.26676829 Z M 8.2,2 c 2.319596,0 4.2,2.6862915 4.2,6 0,3.313708 -1.880404,6 -4.2,6 C 5.8804041,14 3.8,11.313708 3.8,8 3.8,4.6862915 5.8804041,2 8.2,2 Z"/>
 <path style="fill:#f4f4f7" d="M 8,0 A 8,8 0 0 0 0,8 8,8 0 0 0 8,16 8,8 0 0 0 14.135156,13.121875 6,6.8 0 0 1 10.2,14.8 6,6.8 0 0 1 7.0132812,13.752344 4.2,6 0 0 1 4,8 4.2,6 0 0 1 6.975,2.2671875 6,6.8 0 0 1 10.2,1.2 6,6.8 0 0 1 14.154688,2.8929688 8,8 0 0 0 8,0 Z"/>
</svg>

<svg xmlns="http://www.w3.org/2000/svg" width="16" height="16"><path style="fill:#a3a3a3" d="M7.962.267C3.544.267.382 3.62.382 8.038c0 4.418 3.238 7.467 7.656 7.467 1.59 0 3.035.03 4.28-.77A7.994 7.994 0 0 0 16 8c0-2.46-1.11-4.66-2.856-6.127C11.754.704 9.921.267 7.962.267zM8.2 2c2.32 0 4.2 2.686 4.2 6s-1.88 6-4.2 6c-2.32 0-4.4-2.686-4.4-6s2.08-6 4.4-6z"/><path style="fill:#f4f4f7" d="M8 0a8 8 0 0 0-8 8 8 8 0 0 0 8 8 8 8 0 0 0 6.135-2.878A6 6.8 0 0 1 10.2 14.8a6 6.8 0 0 1-3.187-1.048A4.2 6 0 0 1 4 8a4.2 6 0 0 1 2.975-5.733A6 6.8 0 0 1 10.2 1.2a6 6.8 0 0 1 3.955 1.693A8 8 0 0 0 8 0z"/></svg>
